logos/hotjar-icon.svg

<?xml version="1.0" encoding="UTF-8"?>
<svg width="256px" height="288px" viewBox="0 0 256 288" version="1.1" xmlns="http://www.w3.org/2000/svg" preserveAspectRatio="xMidYMid">
    <title>Hotjar</title>
    <g>
        <path d="M256,100.585451 C256,153.652933 232.346128,181.603229 206.692441,199.988082 L201.708054,203.431174 L201.708054,203.431174 L196.708614,206.660435 L196.708614,206.660435 L191.729009,209.700924 L191.729009,209.700924 L186.80413,212.577698 L186.80413,212.577698 L168.18106,223.02872 C167.211639,223.582484 166.255663,224.133843 165.313534,224.684264 L159.830108,227.987269 C140.356882,240.143058 127.972017,253.264511 126.931884,282.967372 L126.860766,287.122006 L71.7524953,287.122006 C71.7524953,235.767039 93.9102293,207.932933 118.589971,189.527391 L123.553729,185.967821 C124.384687,185.39412 125.216992,184.829851 126.049919,184.274493 L131.049104,181.045091 L131.049104,181.045091 L136.028273,178.004486 L136.028273,178.004486 L145.786929,172.389451 L145.786929,172.389451 L159.573612,164.677143 L159.573612,164.677143 L165.225579,161.372022 C186.248431,148.722947 199.735551,135.793074 200.82298,104.740085 L200.894099,100.585451 L256,100.585451 Z M184.251769,0.144276645 C184.251769,51.4953645 162.098571,79.3300668 137.418514,97.7362161 L132.454627,101.295906 C131.623635,101.869627 130.79129,102.433915 129.958318,102.989292 L124.958777,106.218799 L124.958777,106.218799 L119.979081,109.259491 L119.979081,109.259491 L110.218791,114.874609 L110.218791,114.874609 L96.4308896,122.587692 L96.4308896,122.587692 L90.7788895,125.893252 C89.8648481,126.44328 88.9650525,126.993836 88.0799024,127.546386 L82.9479461,130.897359 C66.4485649,142.225274 56.1271755,155.524359 55.1815996,182.527367 L55.1104815,186.682064 L0,186.682064 C0,131.902258 25.2056791,103.888949 51.7974742,85.5298717 L56.793864,82.1965025 L56.793864,82.1965025 L61.787849,79.0643375 L61.787849,79.0643375 L66.7445372,76.10831 L66.7445372,76.10831 L87.8211954,64.2358218 L87.8211954,64.2358218 L93.4731955,60.9302963 C114.496148,48.2798112 127.983073,35.3501528 129.070485,4.29870239 L129.141603,0.144276645 L184.251769,0.144276645 Z" fill="#FF3C00"></path>
    </g>
</svg>

<svg preserveAspectRatio="xMidYMid" viewBox="0 0 256 288" xmlns="http://www.w3.org/2000/svg">
  <path fill="#FF3C00" d="M256 100.585c0 53.068-23.654 81.018-49.308 99.403l-4.984 3.443-5 3.23-4.979 3.04-4.925 2.877-18.623 10.45c-.97.554-1.925 1.106-2.867 1.656l-5.484 3.303c-19.473 12.156-31.858 25.278-32.898 54.98l-.071 4.155H71.752c0-51.355 22.158-79.19 46.838-97.595l4.964-3.56a192.48 192.48 0 0 1 2.496-1.693l5-3.229 4.978-3.04 9.759-5.616 13.787-7.712 5.652-3.305c21.022-12.65 34.51-25.579 35.597-56.632l.071-4.155H256ZM184.252.145c0 51.35-22.153 79.185-46.833 97.591l-4.964 3.56c-.831.574-1.664 1.138-2.497 1.693l-5 3.23-4.979 3.04-9.76 5.616-13.788 7.713-5.652 3.305c-.914.55-1.814 1.1-2.7 1.653l-5.131 3.351c-16.5 11.328-26.82 24.627-27.766 51.63l-.072 4.155H0c0-54.78 25.206-82.793 51.797-101.152l4.997-3.333 4.994-3.133 4.957-2.956L87.82 64.236l5.652-3.306c21.023-12.65 34.51-25.58 35.597-56.631l.072-4.155h55.11Z"/>
</svg>
